X:1
T:Feller from Fortune
M:6/8
L:1/8
K:C
 G2 G| C2 E G2 G| GAG E2 C| C2 F A2 A| ABc G3| C2 E G2 G| GAG E2 C|\
 c2 A G2 E|D-E D C3-| C3||
